resources/svg/visa.svg

<svg xmlns="http://www.w3.org/2000/svg" viewBox="0 0 24 24" fill="currentColor"><path fill="currentColor" fill-rule="evenodd" d="M5.75604904,6.3421103 C4.34405863,5.55921989 2.73289927,4.92988052 0.93115208,4.49372953 L0.98977571,4.14310685 L8.39658295,4.14310685 C9.39421768,4.18029541 10.2006584,4.49872244 10.4787118,5.56582745 L12.0890953,13.309165 C12.0891819,13.3094435 12.0892685,13.3097219 12.0893551,13.3100003 L12.5685021,15.6453901 L17.065563,4.15352309 L21.9311521,4.15352309 L14.6996992,20.9731676 L9.8397917,20.9787631 L5.75604904,6.3421103 L5.75604904,6.3421103 Z"/></svg>

<svg viewBox="0 0 24 24"><path fill="currentColor" fill-rule="evenodd" d="M5.756 6.342C4.344 5.56 2.733 4.93.931 4.494l.059-.35h7.407c.997.036 1.804.355 2.082 1.422l1.61 7.743v.001l.48 2.335l4.497-11.491h4.865L14.7 20.974l-4.86.005L5.756 6.342z"/></svg>
